gi/abstract-045.svg

<svg xmlns="http://www.w3.org/2000/svg" viewBox="0 0 512 512" height="1em" width="1em">
  <path d="M0 0h512v512H0z"/>
  <path fill="#fff" d="m126.6029,21c-58.5338,0-105.6029,47.0641-105.6029,105.6031v258.7938c0,58.539 47.0691,105.6031 105.6029,105.6031h45.3846v-54.3438h37.4529v54.3438h27.4658v-54.3438h38.1875v54.3438h27.4659v-54.3438h37.7467v54.3438h45.0909c58.5338,0 105.6029-47.0641 105.6029-105.6031v-258.7938c0-58.539-47.0691-105.6031-105.6029-105.6031h-45.0909v54.7844h-37.7467v-54.7844h-27.4659v54.7844h-38.1875v-54.7844h-27.4658v54.7844h-37.4529v-54.7844h-45.3846zm129.3972,76.9625c87.2954,0 158.1846,70.7428 158.1846,158.0375s-70.8892,158.1843-158.1846,158.1843-158.1846-70.8897-158.1846-158.1843 70.8891-158.0375 158.1846-158.0375zm0,28.9343c-64.7322,0-118.2901,47.5947-127.6346,109.7157h255.2692c-9.3446-62.121-62.9025-109.7157-127.6346-109.7157zm-127.6346,148.4906c9.3445,62.1433 62.9025,109.8625 127.6346,109.8625s118.29-47.7192 127.6346-109.8625h-255.2692z"/>
</svg>

<svg xmlns="http://www.w3.org/2000/svg" viewBox="0 0 512 512" height="1em" width="1em">
  <path d="M0 0h512v512H0z"/>
  <path fill="#fff" d="M126.603 21C68.069 21 21 68.064 21 126.603v258.794C21 443.936 68.07 491 126.603 491h45.385v-54.344h37.452V491h27.466v-54.344h38.188V491h27.466v-54.344h37.746V491h45.091C443.931 491 491 443.936 491 385.397V126.603C491 68.064 443.931 21 385.397 21h-45.09v54.784H302.56V21h-27.466v54.784h-38.188V21H209.44v54.784h-37.452V21h-45.385zM256 97.963c87.295 0 158.185 70.742 158.185 158.037S343.295 414.184 256 414.184 97.815 343.294 97.815 256 168.705 97.963 256 97.963zm0 28.934c-64.732 0-118.29 47.595-127.635 109.716h255.27C374.29 174.492 320.732 126.897 256 126.897zm-127.635 148.49C137.71 337.531 191.268 385.25 256 385.25s118.29-47.72 127.635-109.863h-255.27z"/>
</svg>
